src/assets/images/icons/filter.svg

<svg height="393pt" viewBox="-4 0 393 393.99003" width="393pt" xmlns="http://www.w3.org/2000/svg"><path d="m368.3125 0h-351.261719c-6.195312-.0117188-11.875 3.449219-14.707031 8.960938-2.871094 5.585937-2.3671875 12.3125 1.300781 17.414062l128.6875 181.28125c.042969.0625.089844.121094.132813.183594 4.675781 6.3125 7.203125 13.957031 7.21875 21.816406v147.796875c-.027344 4.378906 1.691406 8.582031 4.777344 11.6875 3.085937 3.105469 7.28125 4.847656 11.65625 4.847656 2.226562 0 4.425781-.445312 6.480468-1.296875l72.3125-27.574218c6.480469-1.976563 10.78125-8.089844 10.78125-15.453126v-120.007812c.011719-7.855469 2.542969-15.503906 7.214844-21.816406.042969-.0625.089844-.121094.132812-.183594l128.683594-181.289062c3.667969-5.097657 4.171875-11.820313 1.300782-17.40625-2.832032-5.511719-8.511719-8.9726568-14.710938-8.960938zm-131.53125 195.992188c-7.1875 9.753906-11.074219 21.546874-11.097656 33.664062v117.578125l-66 25.164063v-142.742188c-.023438-12.117188-3.910156-23.910156-11.101563-33.664062l-124.933593-175.992188h338.070312zm0 0"/></svg>

<svg height="524" viewBox="-4 0 393 393.99" width="524" xmlns="http://www.w3.org/2000/svg"><path d="M368.313 0H17.05A16.5 16.5 0 002.344 8.96a16.732 16.732 0 001.3 17.415l128.688 181.281c.043.063.09.121.133.184a36.769 36.769 0 017.219 21.816v147.797a16.429 16.429 0 0016.433 16.535c2.227 0 4.426-.445 6.48-1.297l72.313-27.574c6.48-1.976 10.781-8.09 10.781-15.453V229.656a36.774 36.774 0 017.215-21.816c.043-.063.09-.121.133-.184L381.723 26.367a16.717 16.717 0 001.3-17.406A16.502 16.502 0 00368.313 0zM236.78 195.992a56.931 56.931 0 00-11.097 33.664v117.578l-66 25.164V229.656a56.909 56.909 0 00-11.102-33.664L23.648 20h338.07zm0 0"/></svg>
